**kern	**kern	**dynam
*part1	*part1	*part1
*staff2	*staff1	*
*I"Piano	*	*
*clefF4	*clefG2	*
*k[f#c#]	*k[f#c#]	*
=1	=1	=1
*^	*	*
!	!	!LO:TX:b:t=a tempo	!
4r	2.DD 2.D	(4ff# 4aa 4ddd 4fff#	.
8r	.	4.dd 4.ff# 4.aa 4.ddd	.
8A^L 8d 8f#	.	.	.
8F#^J 8A 8d	.	.	.
8r	.	8a 8dd 8ff# 8aa	.
=	=	=	=
!	!	!LO:TX:b:t=cres - cen - do	!
4r	2.BBB 2.BB	4ff# 4bb 4ddd 4fff#	.
8r	.	4.dd 4.ff# 4.bb 4.ddd	.
8A^L 8B 8d 8f#	.	.	.
8F#^J 8A 8B 8d	.	.	.
8r	.	8b 8dd 8ff# 8bb	.
=	=	=	=
4r	2.AAA#X 2.AA#X	4ff# 4aa#X 4ddd 4fff#	.
8r	.	4.dd 4.ff# 4.aa# 4.ddd	.
8A#X^L 8d 8f#	.	.	.
8F#^J 8A# 8d	.	.	.
8r	.	8a#X 8dd 8ff# 8aa#	.
*v	*v	*	*
=	=	=
8DDD 8DD	8ff#) 8aan 8ddd 8fff#	sfz
8r	8r	.
4r	4r	.
!	!LO:TX:b:t=rit.  e  dim.	!
4r	([4f#^	p
=	=	=
*^	*^	*
4ryy	(4FFn 4Cn	4f#]	4A 4d#X	.
4ryy	4EE 4BB 4E	4.dn	4G#X	>
4ryy	4EE-X 4BB-X	.	4Gn	.
.	.	8d	.	.
*v	*v	*	*	*
*	*v	*v	*
=	=	=
[2.DD [2.AA [2.D	[2.F# [2.d [2.a	] pp
=	=	=
*^	*	*
2.DD] 2.AA] 2.D]	2.DDD)	2.F#]) 2.d] 2.a]	.
*v	*v	*	*
==	==	==
*-	*-	*-
!!!system-decoration: {(s1,s2)}
